!!!!SEGMENT: pl-cz--i-128_anonim--custodes-hominum-nam-quod-corruerit.krn
!!!cenid: 16xx:1478
!!!COM: Anonim
!!!COM-rismid: pe30004985
!!!CDT:
!!!CNT:
!!!OTL: [Custodes hominum] / Nam quod corruerit
!!!PDT:
!!!AGN:
!!!SMS-siglum: PL-CZ
!!!SMS-shelfmark: I-128
!!!SMS-shelfwork: W
!!!SMS-variant:
!!!SMS-altvar:
!!!NIFC-rismid: 1001004178
!!!URL-scan: https://repozytorium.nifc.pl/islandora/object/pl-cz%3A558/datastream/PDF/view
!!!ONB-nifc:
!!!key:
**kern	**fba	**kern	**text	**text	**kern	**text	**text	**kern	**text	**text
*part4	*	*part3	*part3	*part3	*part2	*part2	*part2	*part1	*part1	*part1
*staff4	*	*staff3	*staff3	*staff3	*staff2	*staff2	*staff2	*staff1	*staff1	*staff1
*IGcont	*	*IGcoro	*	*	*IGcoro	*	*	*IGcoro	*	*
*ICklav	*	*ICvox	*	*	*ICvox	*	*	*ICvox	*	*
*Iorgan	*	*Ibass	*	*	*Ialto	*	*	*Isoprn	*	*
*I"Organo	*	*I"Baſso	*	*	*I"Alto	*	*	*I"Canto.	*	*
*I'Org.	*	*I'B.	*	*	*I'A.	*	*	*I'C.	*	*
*clefF4	*	*clefF4	*	*	*clefC3	*	*	*clefC1	*	*
*k[]	*	*k[]	*	*	*k[]	*	*	*k[]	*	*
*a:	*	*a:	*	*	*a:	*	*	*a:	*	*
*M3/1	*	*M3/1	*	*	*M3/1	*	*	*M3/1	*	*
*2\right	*	*2\right	*	*2	*2\right	*	*	*2\right	*	*
=1	=1	=1	=1	=1	=1	=1	=1	=1	=1	=1
!LO:TX:a:t=De Angelis	!	!	!	!	!	!	!	!	!	!
1A	.	1A	Nam	San-	1e	Nam	San-	1ee	Nam	San-
1c	.	1c	quod	-ct(us)	1e	quod	-ct(us)	1ee	quod	-ct(us)
1G#X	6 5	1G#X	Cor-	sit	1e	Cor-	sit	1dd	Cor-	sit
=2	=2	=2	=2	=2	=2	=2	=2	=2	=2	=2
1.A	.	1.A	-ru-	Tri-	1.e	-ru-	Tri-	1.cc	-ru-	Tria-
2G#X\	6 5	2G#X\	-e-	-a-	2e\	-e-	-a-	2dd\	-e-	.
1A	.	1A	-rit	-di	1e	-rit	-di	1cc	-rit	-di
=3	=3	=3	=3	=3	=3	=3	=3	=3	=3	=3
1.F	.	1.F	Pro-	Laus	1.f	Pro-	Laus	1.cc	Pro-	laus
2D\	x 7	2D\	-di-	pi-	2f\	-di-	pi-	2cc\	-di-	pi-
1G	x 7	1G	-tor	-a	1f	-tor	-a	1b	-tor	-a
=4	=4	=4	=4	=4	=4	=4	=4	=4	=4	=4
0C	.	1.C	An-	Ju-	1.e	An-	Ju-	1.cc	An-	Ju-
.	.	2C/	-ge-	-gi-	2e\	-ge-	-gi-	2cc\	-ge-	-gi-
1C	.	1C	-l(us)	-ter	1e	-l(us)	-ter	1cc	-lus	-ter
=5	=5	=5	=5	=5	=5	=5	=5	=5	=5	=5
1c	.	1c	Con-	Cu-	1g	Con-	Cu-	1cc	Con-	Cu-
1B	x 6	1B	-ceſ-	-i(us)	1g	-ceſ-	-ius	1g	-ceſ-	-ius
!LO:TX:b:t=P:problem=# below	!	!	!	!	!LO:TX:b:t=P:problem=# below	!	!	!	!	!
1A	x 6	1A	-sis	per-	1f#X	-sis	per-	1a	-sis	per-
*	*below	*	*	*	*	*	*	*	*	*
.	#	.	.	.	.	.	.	.	.	.
=6	=6	=6	=6	=6	=6	=6	=6	=6	=6	=6
*	*above	*	*	*	*	*	*	*	*	*
0G	.	1.G	me-	-pe-	1.g	me-	-pe-	1.b	me-	-pe-
.	.	2G\	-ri-	-tu-	2g\	-ri-	-tu-	2b\	-ri-	-tu-
1G	.	1G	-to	-o	1g	-to	-o	1b	-to	-o
=7	=7	=7	=7	=7	=7	=7	=7	=7	=7	=7
0G	.	1G	pul-	Nu-	1g	Pul-	Nu-	1b	pul-	Nu-
.	.	1G	-s(us)	-mi-	1d	-sus	-mi-	1b	-s(us)	-mi-
1F	x 6	1F	ho-	-ne	1f	ho-	-ne	1a	ho-	-ne
=8	=8	=8	=8	=8	=8	=8	=8	=8	=8	=8
*	*below	*	*	*	*	*	*	*	*	*
!LO:TX:b:t=P:problem=# below	!	!LO:LB:g=original	!	!	!	!	!	!LO:LB:g=original	!	!
0.A	#	0A	-no-	Ma-	0e	-no-	Ma-	0a	-no-	Ma-
*	*above	*	*	*	*	*	*	*	*	*
.	x 4	1A	-ri-	-chi-	1e	-ri-	-chi-	1a	-ri-	-chi-
.	x 3	.	.	.	.	.	.	.	.	.
=9	=9	=9	=9	=9	=9	=9	=9	=9	=9	=9
!	!	!	!	!	!LO:LB:g=original	!	!	!	!	!
!LO:LB:g=original	!	!	!	!	!	!	!	!	!	!
0.D	x #	0.D	-bus	-na	0.f#X	-b(us)	-na	0.a	-bus	-na
=10	=10	=10	=10	=10	=10	=10	=10	=10	=10	=10
1G	.	1G	Ar-	Tri-	1d	Ar-	Tri-	1b	Ar-	Tri-
1E	.	1E	-dens	-plex	1g	-dens	-plex	1g	-dens	-plex
1C	.	1C	In-	haec	1g	In-	haec	1cc	in-	haec
=11	=11	=11	=11	=11	=11	=11	=11	=11	=11	=11
0G	.	1.G	-ui-	re-	1.g	-ui-	re-	1.b	-ui-	re-
.	.	2G\	-di-	-gi-	2g\	-di-	-gi-	2b\	-di-	-gi-
1G	.	1G	-a	-tur	1g	-a	-tur	1b	-a	-tur
=12	=12	=12	=12	=12	=12	=12	=12	=12	=12	=12
1G	x 6	1G	pel-	Cu-	1g	pel-	Cu-	1b	pel-	cu-
1A	.	1A	-le-	-i(us)	1e	-le-	-i(us)	1cc	-le-	-ius
1F	x 6	1F	-re	in	1d	-re	in	1a	-re	in
=13	=13	=13	=13	=13	=13	=13	=13	=13	=13	=13
*	*below	*	*	*	*	*	*	*	*	*
!LO:TX:b:t=P:problem=# below	!	!	!	!	!	!	!	!	!	!
0E	#	1.E	ni-	om-	1.e	ni-	om-	1.g#X	ni-	om-
.	.	2E\	-ti-	-ni-	2e\	-ti-	-ni-	2g#/	-ti-	-ni-
1E	.	1E	-tur	-a	1e	-tur	-a	1g#	-tur	-a
=14	=14	=14	=14	=14	=14	=14	=14	=14	=14	=14
*	*above	*	*	*	*col	*	*	*	*	*
0.AA	x 5	0.AA	quos	reg-	1e	Quos	Reg-	1r	.	.
.	x 6	.	.	.	1c	.	-nat	1cc	Quos	Reg-
*	*	*	*	*	*Xcol	*	*	*	*	*
.	.	.	.	.	0f	Cae-	Glo-	1a	Cae-	-nat
=15	=15	=15	=15	=15	=15	=15	=15	=15	=15	=15
0.BB	x 5	0BB	Cae-	-nat	.	.	.	(1dd	-lo	Glo-
*	*	*	*	*	*col	*	*	*	*	*
.	x 6	.	.	.	1d	.	.	1b	.	-ri-
*	*	*	*	*	*Xcol	*	*	*	*	*
.	.	1BB	-lo	Glo	0g	lo	-ri-	1g)	.	-a
=16	=16	=16	=16	=16	=16	=16	=16	=16	=16	=16
0.C	x 5	0C	De-	ri-	.	.	.	(1ee	De-	Sae-
*	*	*	*	*	*col	*	*	*	*	*
.	x 6	.	.	.	1e	.	-a	1cc)	.	.
*	*	*	*	*	*Xcol	*	*	*	*	*
.	.	1C	-(us)	-a	4a\	De-	Sae-	1a	.	.
.	.	.	.	.	4g\	.	.	.	.	.
*	*	*	*	*	*col	*	*	*	*	*
.	.	.	.	.	1f\	-us	.	.	.	.
=17	=17	=17	=17	=17	=17	=17	=17	=17	=17	=17
*	*	*lig	*	*	*	*	*	*	*	*
1D	x 6	1D	ad-	Sae-	.	.	.	1dd	-us	-cu-
!	!	!	!	!	!LO:N:vis=1.	!	!	!	!	!
.	.	.	.	.	2.d\	ad-	-cu-	.	.	.
0E	x 4	1.E	.	.	.	.	.	1cc	ad-	.
*	*	*Xlig	*	*	*Xcol	*	*	*	*	*
.	x 3	.	.	.	4e\	-vo-	.	.	.	.
!	!	!	!	!	!LO:N:vis=00	!	!	!	!	!
.	.	.	.	.	[y1.e	-cat	-la.	.	.	.
.	.	.	.	.	.	.	.	2.b\	-uo-	.
.	.	2E\	-uo-	-cu-	.	.	.	.	.	.
.	.	.	.	.	.	.	.	4cc\	.	.
=18	=18	=18	=18	=18	=18	=18	=18	=18	=18	=18
*	*below	*	*	*	*	*	*	*	*	*
0.AA	#	0.AA	-cat	-la.-	0.e]yy	.	.	0.a	-cat	-la.
==	==	==	==	==	==	==	==	==	==	==
*-	*-	*-	*-	*-	*-	*-	*-	*-	*-	*-
!!!system-decoration: [(s1,s2,s3,s4)]
!!!AIN: 1 alto 1 bass 1 organ 1 soprn
!!!ENC: Berenika Jozajtis
!!!END: 2021-10-26
!!!ENC: Krzysztof Stępień
!!!END: 2021-11-17
